X:0058
M:6/8
L:1/8
Q:3/8=120
K:A Minor
a2e g2d|edc B3|A2B c2d|efd ecA |
afa geg|fdf g3|G2A B2c|dge dBG:|

